svgs/sharp-solid/calendar-arrow-up.svg

<svg xmlns="http://www.w3.org/2000/svg" viewBox="0 0 448 512"><!--! Font Awesome Pro 6.6.0 by @fontawesome - https://fontawesome.com License - https://fontawesome.com/license (Commercial License) Copyright 2024 Fonticons, Inc. --><path d="M160 0l0 64 128 0 0-64 64 0 0 64 96 0 0 96L0 160 0 64l96 0L96 0l64 0zM0 192l448 0 0 320L0 512 0 192zM248 424l0-102.1 39 39 17 17L337.9 344l-17-17-80-80-17-17-17 17-80 80-17 17L144 377.9l17-17 39-39L200 424l0 24 48 0 0-24z"/></svg>

<svg xmlns="http://www.w3.org/2000/svg" viewBox="0 0 448 512"><!--! Font Awesome Pro 6.4.0 by @fontawesome - https://fontawesome.com License - https://fontawesome.com/license (Commercial License) Copyright 2023 Fonticons, Inc. --><path d="M160 0V64H288V0h64V64h96v96H0V64H96V0h64zM0 192H448V512H0V192zM248 424V321.9l39 39 17 17L337.9 344l-17-17-80-80-17-17-17 17-80 80-17 17L144 377.9l17-17 39-39V424v24h48V424z"/></svg>
